X:325
T:Back Issues
M:C|
L:1/8
C:© Paul Gitlitz, 2011
K:D
"D"A,D(3DDD "Em"CEGB| "D"AF(3FFF "A"EFGA|"G"BGAF GEFD|"Em"EDCB, "A"A,DCE|!
 "D"FD(3DDD FAdA| "G"BG(3GGG Bdgd| "D"af(3fff "Em"ge(3eee|"A7" fgef "D"d4:| !
|:"D"FADA FAdf|"A"afge "D"fdcd|"G"gd(3ddd "D"fd(3ddd|"Em"edcB "A"Adce|!
"D"fd(3ddd fdfa|"Em"ge(3eee "G"gegb|"D"af(3fff "Em"ge(3eee| "A7"fgef "D"d4:|]
